symbolic/24x24/apps/bastion.svg

<svg width="24" height="24" version="1.1" xmlns="http://www.w3.org/2000/svg">
 <g transform="translate(1,1)">
  <path d="m 10,1.5 a 9,9 0 0 0 -9,9 9,9 0 0 0 1.8046875,5.390625 L 2,17.5 l 5,3 0.6601562,-1.320312 A 9,9 0 0 0 10,19.5 9,9 0 0 0 10.496094,19.482422 L 11,21.5 l 5,-1 -0.873047,-2.617188 a 9,9 0 0 0 2.777344,-3.082031 L 20,15.5 21,10.5 18.980469,9.9960938 A 9,9 0 0 0 17.882812,6.1757812 L 19,4.5 15,1.5 14.033203,2.4667969 A 9,9 0 0 0 10,1.5 Z" style="opacity:.2"/>
  <path d="m 10,1 a 9,9 0 0 0 -9,9 9,9 0 0 0 1.8046875,5.390625 L 2,17 7,20 7.6601562,18.679688 A 9,9 0 0 0 10,19 9,9 0 0 0 10.496094,18.982422 L 11,21 16,20 15.126953,17.382812 a 9,9 0 0 0 2.777344,-3.082031 L 20,15 21,10 18.980469,9.4960938 A 9,9 0 0 0 17.882812,5.6757812 L 19,4 15,1 14.033203,1.9667969 A 9,9 0 0 0 10,1 Z" style="fill:#38aff1"/>
  <path d="m10 1.5s-0.4619113 0.018847-0.9179688 0.046875a9 9 0 0 0-7.8652343 7.0390625c0.8150634 1.7810335 2.6542596 3.4452045 4.5136719 4.7226565l-0.7304688 2.191406 3 1v-2.117188c0.9592413 0.279342 2.036527 0.433149 3.109375 0.447266l0.890625 2.669922 3-1-0.710938-2.134766c1.427377-0.499857 2.503817-1.41539 2.710938-2.865234 1-7-7-10-7-10z" style="opacity:.2"/>
  <path d="M 10,1 A 9,9 0 0 0 1,10 9,9 0 0 0 1.0117188,10.207031 9,9 0 0 1 10,1.5 9,9 0 0 1 14.033203,2.4667969 L 15,1.5 18.777344,4.3339844 19,4 15,1 14.033203,1.9667969 A 9,9 0 0 0 10,1 Z m 8.029297,4.9570312 -0.146485,0.21875 a 9,9 0 0 1 1.097657,3.8203126 L 20.904297,10.476562 21,10 18.980469,9.4960938 A 9,9 0 0 0 18.029297,5.9570312 Z M 2.6582031,15.685547 2,17 2.1914062,17.115234 2.8046875,15.890625 A 9,9 0 0 1 2.6582031,15.685547 Z M 15.259766,17.78125 a 9,9 0 0 1 -0.132813,0.101562 L 15.84375,20.03125 16,20 Z" style="fill:#ffffff;opacity:.2"/>
  <path d="M 10,1 C 10,1 9.5380887,1.0188467 9.0820312,1.046875 A 9,9 0 0 0 1.2167969,8.0859375 C 2.0318603,9.8669713 3.8710565,11.531142 5.7304688,12.808594 L 5,15 8,16 v -2.117188 c 0.9592413,0.279342 2.036527,0.433149 3.109375,0.447266 L 12,17 15,16 14.289062,13.865234 C 15.716439,13.365377 16.792879,12.449844 17,11 18,4 10,1 10,1 Z" style="fill:#3f3f3f"/>
  <path d="m7 7.5s-0.05409 3 1 3c2 0 3-1 3-1s-2-2-4-2zm9 1c-2 0-3 1-3 1s0 1 2 1c1 0 1-2 1-2z" style="opacity:.2"/>
  <path d="m13 9s1-1 3-1c0 0 0 2-1 2-2 0-2-1-2-1z" style="fill:#1bffe1"/>
  <path d="m11 9s-2-2-4-2c0 0-0.054093 3 1 3 2 0 3-1 3-1z" style="fill:#1bffe1"/>
  <path d="m10 2.5a1 0.5 0 0 0-1 0.5 1 0.5 0 0 0 1 0.5 1 0.5 0 0 0 1-0.5 1 0.5 0 0 0-1-0.5zm1.5 2a1.5 0.5 0 0 0-1.5 0.5 1.5 0.5 0 0 0 1.5 0.5 1.5 0.5 0 0 0 1.5-0.5 1.5 0.5 0 0 0-1.5-0.5zm0.5 2a1 0.5 0 0 0-1 0.5 1 0.5 0 0 0 1 0.5 1 0.5 0 0 0 1-0.5 1 0.5 0 0 0-1-0.5z" style="opacity:.2"/>
  <ellipse cx="12" cy="6.5" rx="1" ry=".5" style="fill:#df563d"/>
  <ellipse cx="11.5" cy="4.5" rx="1.5" ry=".5" style="fill:#df563d"/>
  <ellipse cx="10" cy="2.5" rx="1" ry=".5" style="fill:#df563d"/>
  <path d="M 10,1 C 10,1 9.5380888,1.0188467 9.0820312,1.046875 A 9,9 0 0 0 1.2167969,8.0859375 c 0.024343,0.053192 0.057841,0.1052266 0.083984,0.1582031 A 9,9 0 0 1 9.0820312,1.546875 C 9.5380888,1.518847 10,1.5 10,1.5 c 0,0 6.840133,2.5777392 7.066406,8.511719 C 17.220555,3.7224257 10,1 10,1 Z M 5.5976562,13.208984 5,15 5.1503906,15.05078 5.7304688,13.308593 c -0.044962,-0.03089 -0.087889,-0.06827 -0.1328126,-0.09961 z m 8.8378908,1.097657 c -0.0496,0.01873 -0.09599,0.04091 -0.146485,0.05859 l 0.560547,1.68555 L 15,16 Z" style="fill:#ffffff;opacity:.2"/>
  <path d="m 7,7 c 0,0 -0.00105,0.2054838 0.011719,0.5019531 1.5585442,0.00614 3.080213,1.1919018 3.6875,1.7246094 C 10.879894,9.1001917 11,9 11,9 11,9 9,7 7,7 Z m 9,1 c -2,0 -3,1 -3,1 0,0 0.008,0.1738134 0.150391,0.375 0.317034,-0.2535299 1.23317,-0.8599827 2.802734,-0.8730469 C 15.985573,8.2248165 16,8 16,8 Z" style="fill:#ffffff;opacity:.2"/>
  <path d="M 10,2 A 1,0.5 0 0 0 9,2.5 1,0.5 0 0 0 9.1347656,2.75 1,0.5 0 0 1 10,2.5 1,0.5 0 0 1 10.865234,2.75 1,0.5 0 0 0 11,2.5 1,0.5 0 0 0 10,2 Z m 1.5,2 A 1.5,0.5 0 0 0 10,4.5 1.5,0.5 0 0 0 10.203125,4.75 1.5,0.5 0 0 1 11.5,4.5 1.5,0.5 0 0 1 12.796875,4.75 1.5,0.5 0 0 0 13,4.5 1.5,0.5 0 0 0 11.5,4 Z M 12,6 A 1,0.5 0 0 0 11,6.5 1,0.5 0 0 0 11.134766,6.75 1,0.5 0 0 1 12,6.5 1,0.5 0 0 1 12.865234,6.75 1,0.5 0 0 0 13,6.5 1,0.5 0 0 0 12,6 Z" style="fill:#ffffff;opacity:.2"/>
 </g>
</svg>

<svg width="24" height="24" xmlns="http://www.w3.org/2000/svg"><g transform="translate(1 1)"><path d="M10 1.5a9 9 0 0 0-9 9 9 9 0 0 0 1.805 5.39L2 17.5l5 3 .66-1.32a9 9 0 0 0 2.34.32 9 9 0 0 0 .496-.018L11 21.5l5-1-.873-2.617a9 9 0 0 0 2.777-3.082L20 15.5l1-5-2.02-.504a9 9 0 0 0-1.097-3.82L19 4.5l-4-3-.967.967A9 9 0 0 0 10 1.5z" style="opacity:.2"/><path d="M10 1a9 9 0 0 0-9 9 9 9 0 0 0 1.805 5.39L2 17l5 3 .66-1.32A9 9 0 0 0 10 19a9 9 0 0 0 .496-.018L11 21l5-1-.873-2.617a9 9 0 0 0 2.777-3.082L20 15l1-5-2.02-.504a9 9 0 0 0-1.097-3.82L19 4l-4-3-.967.967A9 9 0 0 0 10 1z" style="fill:#38aff1"/><path d="M10 1.5s-.462.019-.918.047a9 9 0 0 0-7.865 7.039c.815 1.781 2.654 3.445 4.513 4.723L5 15.5l3 1v-2.117c.96.28 2.037.433 3.11.447L12 17.5l3-1-.71-2.135c1.426-.5 2.503-1.415 2.71-2.865 1-7-7-10-7-10z" style="opacity:.2"/><path d="M10 1a9 9 0 0 0-9 9 9 9 0 0 0 .012.207A9 9 0 0 1 10 1.5a9 9 0 0 1 4.033.967L15 1.5l3.777 2.834L19 4l-4-3-.967.967A9 9 0 0 0 10 1zm8.03 4.957-.147.219a9 9 0 0 1 1.097 3.82l1.924.48L21 10l-2.02-.504a9 9 0 0 0-.95-3.539zM2.657 15.686 2 17l.191.115.614-1.224a9 9 0 0 1-.147-.205zM15.26 17.78a9 9 0 0 1-.133.102l.717 2.148L16 20z" style="fill:#fff;opacity:.2"/><path d="M10 1s-.462.019-.918.047a9 9 0 0 0-7.865 7.039c.815 1.781 2.654 3.445 4.513 4.723L5 15l3 1v-2.117c.96.28 2.037.433 3.11.447L12 17l3-1-.71-2.135c1.426-.5 2.503-1.415 2.71-2.865 1-7-7-10-7-10z" style="fill:#3f3f3f"/><path d="M7 7.5s-.054 3 1 3c2 0 3-1 3-1s-2-2-4-2zm9 1c-2 0-3 1-3 1s0 1 2 1c1 0 1-2 1-2z" style="opacity:.2"/><path d="M13 9s1-1 3-1c0 0 0 2-1 2-2 0-2-1-2-1zM11 9S9 7 7 7c0 0-.054 3 1 3 2 0 3-1 3-1z" style="fill:#1bffe1"/><path d="M10 2.5A1 .5 0 0 0 9 3a1 .5 0 0 0 1 .5 1 .5 0 0 0 1-.5 1 .5 0 0 0-1-.5zm1.5 2A1.5.5 0 0 0 10 5a1.5.5 0 0 0 1.5.5A1.5.5 0 0 0 13 5a1.5.5 0 0 0-1.5-.5zm.5 2a1 .5 0 0 0-1 .5 1 .5 0 0 0 1 .5 1 .5 0 0 0 1-.5 1 .5 0 0 0-1-.5z" style="opacity:.2"/><ellipse cx="12" cy="6.5" rx="1" ry=".5" style="fill:#df563d"/><ellipse cx="11.5" cy="4.5" rx="1.5" ry=".5" style="fill:#df563d"/><ellipse cx="10" cy="2.5" rx="1" ry=".5" style="fill:#df563d"/><path d="M10 1s-.462.019-.918.047a9 9 0 0 0-7.865 7.039c.024.053.058.105.084.158a9 9 0 0 1 7.781-6.697C9.538 1.519 10 1.5 10 1.5s6.84 2.578 7.066 8.512C17.221 3.722 10 1 10 1zM5.598 13.209 5 15l.15.05.58-1.741c-.044-.031-.087-.069-.132-.1zm8.838 1.098c-.05.018-.096.04-.147.058l.56 1.686L15 16z" style="fill:#fff;opacity:.2"/><path d="M7 7s-.001.205.012.502c1.558.006 3.08 1.192 3.687 1.725C10.88 9.1 11 9 11 9S9 7 7 7zm9 1c-2 0-3 1-3 1s.008.174.15.375c.317-.254 1.234-.86 2.803-.873C15.986 8.225 16 8 16 8zM10 2a1 .5 0 0 0-1 .5 1 .5 0 0 0 .135.25A1 .5 0 0 1 10 2.5a1 .5 0 0 1 .865.25A1 .5 0 0 0 11 2.5a1 .5 0 0 0-1-.5zm1.5 2a1.5.5 0 0 0-1.5.5 1.5.5 0 0 0 .203.25A1.5.5 0 0 1 11.5 4.5a1.5.5 0 0 1 1.297.25A1.5.5 0 0 0 13 4.5a1.5.5 0 0 0-1.5-.5zm.5 2a1 .5 0 0 0-1 .5 1 .5 0 0 0 .135.25A1 .5 0 0 1 12 6.5a1 .5 0 0 1 .865.25A1 .5 0 0 0 13 6.5a1 .5 0 0 0-1-.5z" style="fill:#fff;opacity:.2"/></g></svg>
